!!!!SEGMENT: Lps2010-Usquequo_Domine.krn
!!!id: Lps2010
!!!AGN: Motet
!!!voices: 4
!!!COM: Lupus Hellinck
!!!OTL: Usquequo Domine
**kern	**kern	**kern	**kern
*part4	*part3	*part2	*part1
*staff4	*staff3	*staff2	*staff1
*I"Bassus	*I"Tenor	*I"Altus	*I"Superius
*I'B	*I'T	*I'A	*I'S
*clefF4	*clefGv2	*clefGv2	*clefG2
*k[]	*k[]	*k[]	*k[]
*C:	*C:	*C:	*C:
*M2/1	*M2/1	*M2/1	*M2/1
*met(C|)	*met(C|)	*met(C|)	*met(C|)
!!section: Prima pars: Usquequo Domine
!!!OMD: Prima pars: Usquequo Domine
0r	0r	1e	1e
.	.	2e	2e
.	.	2c	2e
=1	=1	=1	=1
0r	0r	1d	1f
.	.	1e	1g
=2	=2	=2	=2
0r	0r	2A	1a
.	.	2.f	.
.	.	.	2.a
.	.	4e	.
.	.	2c	.
.	.	.	4a
=3	=3	=3	=3
0r	0r	2.d	2a
.	.	.	2a
.	.	4c	.
.	.	2.A	1cc
.	.	4B	.
=4	=4	=4	=4
0r	0r	2c	2cc
.	.	2.d	2b
.	.	.	1a
.	.	4c	.
.	.	2A	.
=5	=5	=5	=5
1E	1E	2c	0g
.	.	2B	.
2E	2E	1e	.
2C	2E	.	.
=6	=6	=6	=6
1D	1F	2d	0r
.	.	2c	.
1E	1G	1B	.
=7	=7	=7	=7
2AA	1A	1A	0r
2.F	.	.	.
.	2.A	2r	.
4E	.	.	.
2C	.	2e	.
.	4A	.	.
=8	=8	=8	=8
2.D	2A	2f	0r
.	2A	2d	.
4C	.	.	.
2.AA	1c	[1e	.
4BB	.	.	.
=9	=9	=9	=9
2C	2c	2e]	0r
2.D	2B	2d	.
.	1A	2f	.
4C	.	.	.
2AA	.	[2e	.
=10	=10	=10	=10
2C	0G	2e]	0r
2BB	.	2d	.
1E	.	2c	.
.	.	[2B	.
=11	=11	=11	=11
2D	0r	2B]	0r
2C	.	1A	.
1BB	.	.	.
.	.	2G#i	.
=12	=12	=12	=12
2AA	1r	1A	1e
2A	.	.	.
2A	1A	1c	2e
2A	.	.	2e
=13	=13	=13	=13
2D	2A	1d	1f
2F	2A	.	.
1E	1B	2e	1g
.	.	2E	.
=14	=14	=14	=14
1AA	1c	2E	0a
.	.	2E	.
1D	1d	1F	.
=15	=15	=15	=15
2C	2r	1G	1r
2BB	1d	.	.
1AA	.	1A	2r
.	2c	.	[2a
=16	=16	=16	=16
1r	1f	2r	2a]
.	.	2F	2a
2r	1e	1c	2g
[2A	.	.	[2cc
=17	=17	=17	=17
2A]	2c	2A	2cc]
2G	2d	2B	2b
2.c	1e	2c	2g
.	.	[2A	[2cc
4B	.	.	.
=18	=18	=18	=18
2A	2c	2A]	2cc]
2G	2d	2B	2b
2.c	[1e	4c	2g
.	.	4B	.
.	.	4A	[2cc
4B	.	4G	.
=19	=19	=19	=19
4A	0e]	2.c	4cc]
4G	.	.	4b
2.c	.	.	4a
.	.	4B	4g
.	.	4A	4a
4B	.	4G	4b
2A	.	2c	4cc
.	.	.	4a
=20	=20	=20	=20
4G	2r	2d	4b
4F	.	.	4a
4E	2.g	2.e	4g
4D	.	.	4f
4C	.	.	4e
4D	4f	4d	4f
4E	2e	[2g	4g
4F	.	.	4a
=21	=21	=21	=21
2G	2d	4g]	2b
.	.	4f	.
2A	2c	2.e	1a
1E	1B	.	.
.	.	4d	.
.	.	2B	2g#i
=22	=22	=22	=22
2r	1A	0c	0a
2.F	.	.	.
.	2r	.	.
4G	.	.	.
4A	2c	.	.
4F	.	.	.
=23	=23	=23	=23
2B-i	2d	0r	0r
2.A	2f	.	.
.	2e	.	.
4G	.	.	.
4F	[2f	.	.
4E	.	.	.
=24	=24	=24	=24
2D	4f]	0r	0r
.	4e	.	.
2F	1d	.	.
1E	.	.	.
.	2c#i	.	.
=25	=25	=25	=25
0D	[0d	1r	2r
.	.	.	2.f
.	.	2r	.
.	.	.	4g
.	.	2D	4a
.	.	.	4f
=26	=26	=26	=26
1r	0d]	2G	2b-i
.	.	2F	2.a
2r	.	2D	.
.	.	.	4g
2D	.	2A	4f
.	.	.	4e
=27	=27	=27	=27
2G	0r	2B	2d
2F	.	1d	2f
2G	.	.	1e
2A	.	2c#i	.
=28	=28	=28	=28
2.B-i	2r	0d	2d
.	2G	.	1b-X
4A	.	.	.
2G	2G	.	.
2F	2A	.	2a
=29	=29	=29	=29
1E	2B	2r	1g
.	2c	2G	.
2D	1d	2A	2f
[2G	.	[2B	2d
=30	=30	=30	=30
2G]	2G	4B]	2d
.	.	4A	.
4F	2G	4B	2e
4E	.	4c	.
2D	2A	2.d	2f
2G	2B	.	2g
.	.	4e	.
=31	=31	=31	=31
2F	2c	1f	0a
2D	1d	.	.
[1A	.	[1e	.
.	4c	.	.
.	4B	.	.
=32	=32	=32	=32
1A]	2c	1e]	2r
.	1A	.	1cc
1r	.	2r	.
.	2F	2A	2cc
=33	=33	=33	=33
0r	2G	1e	4b
.	.	.	4a
.	1c	.	4g
.	.	.	4f
.	.	2e	4e
.	.	.	4d
.	2B	2d	[2f
=34	=34	=34	=34
1r	2A	2e	4f]
.	.	.	4e
.	2G	2g	1e
1D	2A	1f	.
.	2B	.	2d
=35	=35	=35	=35
1A	1c	2e	0e
.	.	1c	.
2A	1r	.	.
2G	.	2B	.
=36	=36	=36	=36
2A	0r	4c	1r
.	.	4d	.
2c	.	4e	.
.	.	4f	.
1B	.	4g	1d
.	.	2f	.
.	.	8eL	.
.	.	8dJ	.
=37	=37	=37	=37
1A	0r	2c	1a
.	.	1f	.
1r	.	.	2a
.	.	2e	2g
=38	=38	=38	=38
0r	2r	2f	2a
.	2A	2.a	2cc
.	1e	.	1b
.	.	8gL	.
.	.	8fJ	.
.	.	2g	.
=39	=39	=39	=39
0r	2e	2c	1a
.	2d	1f	.
.	2e	.	1r
.	2g	[2e	.
=40	=40	=40	=40
0r	1f	2e]	1a
.	.	2d	.
.	2e	2e	2g
.	2e	2A	[2cc
=41	=41	=41	=41
1AA	1e	4A	2cc]
.	.	2c	.
.	.	.	2cc
.	.	8BL	.
.	.	8AJ	.
1E	2.e	1G	4b
.	.	.	4a
.	.	.	4g
.	8dL	.	4f
.	8cJ	.	.
=42	=42	=42	=42
2E	2B	1r	4e
.	.	.	4d
2D	2d	.	1f
2E	2c	1G	.
2G	[2B	.	[2e
=43	=43	=43	=43
1F	4B]	1A	2e]
.	4A	.	.
.	1A	.	2d
1E	.	1B	2e
.	2G	.	[2g
=44	=44	=44	=44
2C	2E	2c	2g]
2D	2F	1A	1f
1BB	2.D	.	.
.	.	2G#i	4e
.	4E	.	4d
=45	=45	=45	=45
[0AA	2F	1A	0c
.	2.E	.	.
.	.	2r	.
.	4D	.	.
.	2F	[2A	.
=46	=46	=46	=46
0AA]	2E	2A]	2r
.	2F	2A	1a
.	2E	4c	.
.	.	4A	.
.	2A	4c	2a
.	.	4d	.
=47	=47	=47	=47
2r	4c	1e	2g
.	4A	.	.
1A	4c	.	1cc
.	4d	.	.
.	[1e	1r	.
2A	.	.	2cc
=48	=48	=48	=48
2G	0e]	0r	2b
1c	.	.	2a
.	.	.	1g
2c	.	.	.
=49	=49	=49	=49
2B	0r	0r	2r
2A	.	.	1cc
1G	.	.	.
.	.	.	2b
=50	=50	=50	=50
2r	0r	0r	2.a
1c	.	.	.
.	.	.	8gL
.	.	.	8fJ
.	.	.	2e
2B	.	.	2d
=51	=51	=51	=51
2.A	0r	0r	2f
.	.	.	2.e
8GL	.	.	.
8FJ	.	.	.
2E	.	.	.
.	.	.	8dL
.	.	.	8cJ
2D	.	.	2B
=52	=52	=52	=52
2F	1r	0r	2A
2E	.	.	2c
4D	2r	.	2B
4C	.	.	.
4BB	[2d	.	[2A
4AA	.	.	.
=53	=53	=53	=53
1BB	2d]	2r	2A]
.	2d	2D	2G#i
1AA	2c	2E	2A
.	[2f	2F	[2a
=54	=54	=54	=54
1r	2f]	2D	2a]
.	2f	2A	2a
2r	2.e	2.c	2g
[2A	.	.	[2cc
.	4d	4d	.
=55	=55	=55	=55
2A]	1c	1.e	2cc]
2A	.	.	2cc
2G	2r	.	2b
[2c	2F	2A	2a
=56	=56	=56	=56
2c]	2E	1e	1g
2c	2C	.	.
2B	2G	2d	2r
[2A	2A	2c	[2e
=57	=57	=57	=57
2A]	1E	1B	2e]
2G#i	.	.	2e
1A	2r	2A	2e
.	[2A	[2c	2e
=58	=58	=58	=58
0r	2A]	2c]	1f
.	2F	2A	.
.	2G	2B	1e
.	2A	[2c	.
=59	=59	=59	=59
1r	1F	2c]	1a
.	.	2d	.
2r	2E	2e	2g
[2A	2e	2c	[2cc
=60	=60	=60	=60
2A]	2c	2e	2cc]
2F	2d	2f	2a
2G	2B	2d	2b
2A	[2e	2c	[2cc
=61	=61	=61	=61
1F	2e]	2.A	2cc]
.	2d	.	4b
.	.	4B	4a
2E	1e	4c	[1g
.	.	4d	.
[2c	.	[2e	.
=62	=62	=62	=62
2c]	0r	4e]	1g]
.	.	4c	.
2B	.	4d	.
.	.	4e	.
2A	.	2f	1r
2G	.	[2e	.
=63	=63	=63	=63
1F	0r	2e]	1r
.	.	2d	.
1E	.	1e	[1g
=64	=64	=64	=64
1.C	1.c	1.e	1g]
.	.	.	1g
2C	2c	2e	.
=65	=65	=65	=65
1C	1c	1e	1g
[1F	2r	2.A	[1a
.	[2c	.	.
.	.	4B	.
=66	=66	=66	=66
1F]	2c]	2c	1a]
.	2A	2d	.
1E	1B	[1e	[1g
=67	=67	=67	=67
1C	1c	1e]	1g]
[1D	2A	[1d	1f
.	[2B	.	.
=68	=68	=68	=68
1D]	2B]	1d]	1f
.	1A	.	.
[1E	.	[1B	[1e
.	4G#i	.	.
.	4F#i	.	.
=69	=69	=69	=69
1E]	1G#i	1B]	0e_
1r	1A	2r	.
.	.	2c	.
=70	=70	=70	=70
1r	2E	2B	1e]
.	1e	2A	.
2r	.	2.c	1r
2c	2e	.	.
.	.	4B	.
=71	=71	=71	=71
2B	2d	2G	2r
4A	2c	2.A	1cc
2c	.	.	.
.	2A	.	.
4B	.	4G	.
2G	2B	2E	2b
=72	=72	=72	=72
2.A	1c	2r	4a
.	.	.	2cc
.	.	2.e	.
4G	.	.	4b
2E	2B	.	2g
.	.	4d	.
[2F	2A	4c	[2a
.	.	4B	.
=73	=73	=73	=73
4F]	1c	2A	4a]
4E	.	.	4g
2C	.	1e	2e
2.D	2B	.	1f
.	2A	2d	.
4C	.	.	.
=74	=74	=74	=74
1AA	2.c	2e	[0e
.	.	2c	.
.	4B	.	.
2r	2G	2B	.
[2c	[2A	4A	.
.	.	[4c	.
=75	=75	=75	=75
2c]	4A]	4c]	1e]
.	4G	8BL	.
.	.	8AJ	.
2B	2E	2G	.
2A	1F	2c	2r
[2c	.	2A	[2cc
=76	=76	=76	=76
4c]	1E	1e	2cc]
4B	.	.	.
2G	.	.	2b
2.A	2r	2e	4a
.	.	.	2cc
.	2c	[2e	.
4G	.	.	4b
=77	=77	=77	=77
2E	2B	4e]	2g
.	.	4d	.
2.F	2A	4c	2.a
.	.	4B	.
.	1c	2A	.
4E	.	.	4g
2C	.	[2e	2e
=78	=78	=78	=78
2.D	2B	2e]	1f
.	2A	2d	.
4C	.	.	.
1AA	2.c	2e	[1e
.	.	2c	.
.	4B	.	.
=79	=79	=79	=79
2r	2G	2B	0e]
2AA	2.A	2A	.
2AA	.	1c	.
.	4G	.	.
2AA	2E	.	.
=80	=80	=80	=80
1D	1F	2B-X	1d
.	.	2A	.
1AA	[1El	1c	[1el
=81	=81	=81	=81
2r	0E_	2B	0e_
2.AA	.	2A	.
.	.	1c	.
4BB	.	.	.
4C	.	.	.
4AA	.	.	.
=82	=82	=82	=82
00E	00E]	00B	00e]
=83||	=83||	=83||	=83||
*M2/1	*M2/1	*M2/1	*M2/1
*met(C|)	*met(C|)	*met(C|)	*met(C|)
!!section: Secunda pars: Illumina oculos meos
!!!OMD: Secunda pars: Illumina oculos meos
0AA	0A	0r	1r
.	.	.	[1e
=84	=84	=84	=84
1C	1G	1r	1e]
1D	1F	[1A	1d
=85	=85	=85	=85
1AA	0E	1A]	1c
1r	.	1G	1B
=86	=86	=86	=86
0A	1r	1F	1.c
.	[1e	[1E	.
.	.	.	2c
=87	=87	=87	=87
1G	2e]	1E]	1B
.	2e	.	.
1F	1d	1r	[1A
=88	=88	=88	=88
0E	1c	1.e	2A]
.	.	.	4G
.	.	.	4F
.	[1B	.	2G
.	.	2e	[2A
=89	=89	=89	=89
1r	1B]	1d	2A]
.	.	.	2G#i
[1A	1r	[1c	2A
.	.	.	[2e
=90	=90	=90	=90
2A]	0r	2c]	2e]
2A	.	4B	2c
.	.	4A	.
1G	.	1B	2d
.	.	.	[2e
=91	=91	=91	=91
1F	2r	1A	2e]
.	1A	.	2d
[1E	.	1c	[1e
.	4G	.	.
.	4F	.	.
=92	=92	=92	=92
0E]	2G	0B	0e_
.	1A	.	.
.	2G#i	.	.
=93	=93	=93	=93
1r	2A	0e	1e]
.	1c	.	.
[1A	.	.	1r
.	2B	.	.
=94	=94	=94	=94
1A]	1c	1A	0a
1D	1A	[1d	.
=95	=95	=95	=95
1.G	0B	2d]	1d
.	.	2c	.
.	.	2B	[1g
2F	.	2A	.
=96	=96	=96	=96
2E	1B	1G	2g]
2D	.	.	2f
1C	[1c	1G	2e
.	.	.	2d
=97	=97	=97	=97
1.F	1c]	2.A	1c
.	.	4G	.
.	2r	4A	1c
.	.	4B	.
2E	[2G	[2c	.
=98	=98	=98	=98
0D	2G]	2c]	0f
.	4F	4B	.
.	4E	4A	.
.	1F	2B	.
.	.	2A	.
=99	=99	=99	=99
0C	1G	0c	0e
.	2r	.	.
.	[2G	.	.
=100	=100	=100	=100
0r	2G]	2r	1g
.	2E	2c	.
.	2F	2A	2f
.	2G	2B	2d
=101	=101	=101	=101
0r	2C	4c	1e
.	.	4B	.
.	2c	1e	.
.	2A	.	1f
.	2B	2d	.
=102	=102	=102	=102
0r	4c	2e	1e
.	4B	.	.
.	1e	1A	.
.	.	.	1a
.	2d	2F	.
=103	=103	=103	=103
0r	[0e	2G	2g
.	.	2.A	1cc
.	.	4G	.
.	.	4A	4b
.	.	4B	4a
=104	=104	=104	=104
0r	1e]	2c	2g
.	.	2A	1a
.	2r	1B	.
.	2d	.	2g#i
=105	=105	=105	=105
0r	2c	2A	0a
.	1f	2.D	.
.	.	4E	.
.	4e	4F	.
.	4d	4G	.
=106	=106	=106	=106
0r	2c	2A	2r
.	1d	2F	2f
.	.	2B-i	2d
.	2c	2A	2e
=107	=107	=107	=107
0r	4d	2r	2f
.	4c	.	.
.	4B	2F	1a
.	4A	.	.
.	1B	2D	.
.	.	2E	2g
=108	=108	=108	=108
2r	1A	2F	2.a
2F	.	1A	.
.	.	.	4g
2D	1r	.	2f
2E	.	2G	2e
=109	=109	=109	=109
4F	2r	1A	2d
4E	.	.	.
1A	2F	.	2c
.	2D	1r	1B
2G#i	2E	.	.
=110	=110	=110	=110
2.A	4F	2r	1A
.	4E	.	.
.	1A	2F	.
4G	.	.	.
2F	.	2D	1r
2E	2G	2E	.
=111	=111	=111	=111
2D	1A	4F	0r
.	.	4E	.
2C	.	1A	.
1BB	1r	.	.
.	.	2G#i	.
=112	=112	=112	=112
1AA	1r	2A	0e
.	.	2c	.
2r	[1A	1c	.
2AA	.	.	.
=113	=113	=113	=113
2D	1A]	1d	1f
2F	.	.	.
1E	1B	2e	1g
.	.	2E	.
=114	=114	=114	=114
1AA	1c	1E	0a
1D	1d	1F	.
=115	=115	=115	=115
2C	2r	1G	1r
2BB	1d	.	.
1AA	.	1A	2r
.	2c	.	[2a
=116	=116	=116	=116
1r	1f	2r	2a]
.	.	2F	2a
2r	1e	1c	2g
[2A	.	.	[2cc
=117	=117	=117	=117
2A]	2c	2A	2cc]
2G	2d	2B	2b
1c	2e	2c	2g
.	2c	2A	2a
=118	=118	=118	=118
2B	1d	2G	1.b
1G	.	2.g	.
.	1e	.	.
.	.	4f	.
[2A	.	4e	[2cc
.	.	4d	.
=119	=119	=119	=119
4A]	1A	1c	4cc]
4G	.	.	4b
2F	.	.	1a
1E	1B	1e	.
.	.	.	2g#i
=120	=120	=120	=120
0AA	1A	[0e	0a
.	2r	.	.
.	[2A	.	.
=121	=121	=121	=121
0r	2A]	1e]	2r
.	2A	.	1cc
.	2F	1r	.
.	2G	.	2b
=122	=122	=122	=122
1r	1A	2r	2cc
.	.	1e	2a
2r	1r	.	[1g
[2c	.	2e	.
=123	=123	=123	=123
2c]	0r	2c	1g]
2B	.	2d	.
2c	.	1e	1r
2A	.	.	.
=124	=124	=124	=124
2G	0r	2r	0r
2C	.	2g	.
2D	.	2f	.
2E	.	[2e	.
=125	=125	=125	=125
1F	2r	2e]	0r
.	2A	2d	.
2.E	2B	1e	.
.	2G	.	.
4F	.	.	.
=126	=126	=126	=126
2G	2B	0r	2r
2A	2c	.	2e
1D	2d	.	2f
.	[2f	.	2d
=127	=127	=127	=127
2r	2f]	0r	2f
2E	2e	.	2g
2F	2c	.	[1a
2D	[2f	.	.
=128	=128	=128	=128
2F	4f]	1r	2a]
.	4e	.	.
2G	1d	.	4g
.	.	.	4f
1A	.	2r	1e
.	2c#i	2A	.
=129	=129	=129	=129
0r	1d	2B	1r
.	.	2G	.
.	2G	2B	2r
.	2A	2c	2e
=130	=130	=130	=130
0r	1D	2d	2f
.	.	1f	2d
.	2r	.	2f
.	2E	2e	2g
=131	=131	=131	=131
0r	2F	2c	1.a
.	2D	2.f	.
.	2F	.	.
.	.	4e	.
.	2G	[2d	4g
.	.	.	4f
=132	=132	=132	=132
0r	0A	2d]	1e
.	.	4c	.
.	.	4B	.
.	.	2.c	2r
.	.	.	2a
.	.	4d	.
=133	=133	=133	=133
0r	2r	2e	2g
.	2d	2f	2.a
.	2c	2e	.
.	.	.	4g
.	[2d	[2f	4f
.	.	.	4e
=134	=134	=134	=134
0r	2d]	2f]	2d
.	2c	1e	2.g
.	1B	.	.
.	.	.	4f
.	.	2d	4f
.	.	.	8eL
.	.	.	8dJ
=135	=135	=135	=135
0r	1A	[0e	2c
.	.	.	2cc
.	2r	.	2cc
.	2A	.	2cc
=136	=136	=136	=136
0r	2G	1e]	2b
.	1A	.	2.cc
.	.	2r	.
.	.	.	4b
.	2A	2e	2a
=137	=137	=137	=137
0r	1c	2e	2.g
.	.	2e	.
.	.	.	4a
.	2B	2d	2b
.	2A	[2e	2cc
=138	=138	=138	=138
0r	2.c	2e]	2g
.	.	2A	2.cc
.	4d	.	.
.	1e	1c	.
.	.	.	4b
.	.	.	4g
.	.	.	4a
=139	=139	=139	=139
0r	1r	2.d	2b
.	.	.	2.a
.	.	4c	.
.	2r	2A	.
.	.	.	4g
.	2A	2c	4e
.	.	.	4f
=140	=140	=140	=140
0r	2G	2B	2g
.	2F	2A	2.a
.	1E	2B	.
.	.	.	4g
.	.	2c	[2g
=141	=141	=141	=141
2r	1D	1A	2g]
2D	.	.	2f#i
2E	1r	2.G	1g
2C	.	.	.
.	.	4A	.
=142	=142	=142	=142
2D	1r	2B	0r
2C	.	1c	.
1F	2r	.	.
.	2A	2d	.
=143	=143	=143	=143
1E	2B	2.e	1r
.	2G	.	.
.	.	4d	.
1r	2A	2c	2r
.	2G	2B	2d
=144	=144	=144	=144
0r	1c	1A	2e
.	.	.	2c
.	2B	2G	2d
.	[2e	2c	2c
=145	=145	=145	=145
1r	2e]	2A	1f
.	2d	2B	.
2r	2e	2c	2e
2F	[2f	2A	[2a
=146	=146	=146	=146
2D	2f]	1B	2a]
2E	2e	.	2g#i
2.F	2c	2A	1a
.	[2f	4D	.
4E	.	4E	.
=147	=147	=147	=147
2D	2f]	4F	2r
.	.	4G	.
2C	2e	1A	2cc
2D	1d	.	2a
2BB	.	2G#i	2b
=148	=148	=148	=148
1AA	2c	1A	2.cc
.	4A	.	.
.	4B	.	4b
2r	4c	1r	2a
.	4d	.	.
2c	[2e	.	2g
=149	=149	=149	=149
2A	2e]	1r	2a
2B	2d	.	2f
2.c	1e	2r	2e
.	.	2c	2g
4B	.	.	.
=150	=150	=150	=150
2A	[0e	2c	2a
2G	.	2B	2.b
2.A	.	2c	.
.	.	.	4a
.	.	2A	[2a
8GL	.	.	.
8FJ	.	.	.
=151	=151	=151	=151
1E	0e]	1B	2a]
.	.	.	2g#i
2r	.	2A	2a
2A	.	2c	2e
=152	=152	=152	=152
2G	1r	2B	2e
1A	.	1c	2e
.	2r	.	2c
4G	2A	4B	2d
4F	.	4A	.
=153	=153	=153	=153
2E	2G	2B	[0e
2AA	1A	1c	.
2r	.	.	.
2A	4G	4B	.
.	4F	4A	.
=154	=154	=154	=154
2G	2E	2B	1e]
2E	2e	2G	.
2F	2d	2A	1r
2G	2d	2B	.
=155	=155	=155	=155
1C	2.e	2.c	2r
.	.	.	2g
.	4d	4B	.
1r	2c	2A	2a
.	2B	2G	2b
=156	=156	=156	=156
0r	1A	2F	2.cc
.	.	2c	.
.	.	.	4b
.	2r	2d	2a
.	2G	[2e	2g
=157	=157	=157	=157
1r	2A	2e]	1f
.	2B	2d	.
2r	2.c	4e	1e
.	.	4f	.
2C	.	4g	.
.	4B	4e	.
=158	=158	=158	=158
2D	2A	2f	1r
2E	2G	2g	.
2.F	1A	2c	2r
.	.	[2f	2c
4E	.	.	.
=159	=159	=159	=159
2D	2r	2f]	2d
2C	2A	2e	2e
1D	2A	2.d	2.f
.	2A	.	.
.	.	4c	4e
=160	=160	=160	=160
0GG	2.B-X	2d	2d
.	.	1e	2c
.	4A	.	.
.	2G	.	1B
.	2F	[2d	.
=161	=161	=161	=161
1AA	1E	2d]	[0A
.	.	2c	.
1r	2D	1f	.
.	[2d	.	.
=162	=162	=162	=162
2r	2d]	1e	0A]
2A	2c	.	.
2A	1f	2r	.
2F	.	[2d	.
=163	=163	=163	=163
2G	1e	2d]	2r
2A	.	2c	1a
1D	2d	1f	.
.	2A	.	2a
=164	=164	=164	=164
2r	2.c	1e	2g
1A	.	.	1cc
.	4d	.	.
.	4e	2c	.
.	4f	.	.
2G	[2g	2d	2b
=165	=165	=165	=165
2.c	2g]	1e	2g
.	2e	.	1cc
4B	.	.	.
2A	2f	2c	.
2G	[2g	2d	2b
=166	=166	=166	=166
2.c	2g]	1e	2g
.	2e	.	1cc
4B	.	.	.
2A	2f	2c	.
2G	2g	2d	[2b
=167	=167	=167	=167
2A	2c	2A	2b]
2A	2.e	2c	1a
1E	.	1B	.
.	4d	.	.
.	2B	.	2g#i
=168	=168	=168	=168
0r	2c	2A	1a
.	2.d	2D	.
.	.	1F	2r
.	4c	.	.
.	2A	.	[2d
=169	=169	=169	=169
1r	1B	1G	2d]
.	.	.	2d
2r	2A	1A	2c
[2D	4F	.	[2f
.	4G	.	.
=170	=170	=170	=170
2D]	4A	2F	2f]
.	4B	.	.
2C	1c	2G	2e
2.F	.	1A	2c
.	2A	.	[2f
4E	.	.	.
=171	=171	=171	=171
2D	2B	2F	2f]
2C	2.c	2G	2e
2.F	.	[1A	2c
.	4B	.	.
.	[2A	.	[2f
4E	.	.	.
=172	=172	=172	=172
2D	4A]	1A]	4f]
.	4G	.	4e
2C	2E	.	1e
2D	1F	2r	.
2D	.	[2A	2d
=173	=173	=173	=173
1AA	0E	2A]	[0el
.	.	2A	.
2r	.	2G	.
[2AA	.	[2c	.
=174	=174	=174	=174
2AA]	2r	2c]	0e_
2GG	2G	2B	.
2.C	2G	2G	.
.	2G	[2c	.
4BB	.	.	.
=175	=175	=175	=175
2AA	2A	2c]	0e_
2GG	2B	2B	.
2.C	2c	2G	.
.	2G	[2c	.
4BB	.	.	.
=176	=176	=176	=176
2AA	2A	2c]	0e_
2GG	2B	2B	.
2AA	1c	1A	.
2AA	.	.	.
=177	=177	=177	=177
00El	00Bl	00Gl	00e]
==	==	==	==
*-	*-	*-	*-
!!!system-decoration: [*]
!!!RDF**kern: i = editorial accidental
!!!RDF**kern: l = terminal long
!!!ENC: Benjamin Ory
!!!END: 2024/4/6
!!!EED: Benjamin Ory
!!!EEV: 2024/04/06
!!!YEC: Copyright 2024 Benjamin Ory, All Rights Reserved
!!!ONB: Translated from MusicXML on 2024/04/06
